/* XPM */
static char * code_xpm[] = {
"32 32 28 1",
"A c #FEFEFE",
"B c #FD7857",
"C c #49A4EB",
"D c #FFCE48",
"E c #3A9DE9",
"F c #FFCA3C",
"G c #D1E8F9",
"H c #FECEC3",
"I c #FFEDC5",
"J c #FFECBA",
"K c #67B3EE",
"L c #FEC8BA",
"M c #AAD5F5",
"N c #FFDA75",
"O c #FFECE8",
"P c #86C3F2",
"Q c #FFF4D6",
"R c #FFDCD3",
"S c #FD7F60",
"T c #FD9C84",
"U c #FD8668",
"V c #FD977D",
"W c #FEBAA9",
"X c #FEA994",
"Y c #BFE0F8",
"Z c #FFD35B",
"a c #FFE294",
"b c #FFDD80",
"AAAAAAAAAAAAAAAAAAAAAAAAAAAAAAAA",
"AAAAAAAAAAAAAAAAAAAAAAAAAAAAAAAA",
"AAAAAAAAAAAAAAAAAAAAAAAAAAAAAAAA",
"AAAAAAAAAAAAAAAAAAAAAAAAAAAAAAAA",
"AAAAAAAAAAAAAAAAAAAAAAAAAAAAAAAA",
"AAAAAAAAAAAAAAAGGAAAAAAAAAAAAAAA",
"AAAAAAAAAAAAAGCEECGAAAAAAAAAAAAA",
"AAAAAAAAAAAAAKECCECAAAAAAAAAAAAA",
"AAAAAAAAAAAAMECCCCEMAAAAAAAAAAAA",
"AAAAAAAAAAAACCCCCCCCAAAAAAAAAAAA",
"AAAAAAAAAAAPECCCCCCEPAAAAAAAAAAA",
"AAAAAAAAAAGCCCCCCCCCCGAAAAAAAAAA",
"AAAAAAAAAAKEEEECCEEEEKAAAAAAAAAA",
"AAAAAAAAAGCKPMMGGYMPKCGAAAAAAAAA",
"AAAAAAAAAAAAAAAAAAAAAAAAAAAAAAAA",
"AAAAAAAALRAAAAAAAAAAAAQIAAAAAAAA",
"AAAAAAAOBTAAAAAAAAAAAAbDAAAAAAAA",
"AAAAAAAXBUAAAAAAAAAAAAZFaAAAAAAA",
"AAAAAARBSBLAAAAAAAAAAIFDDQAAAAAA",
"AAAAAAVBSBTAAAAAAAAAANFDFNAAAAAA",
"AAAAALBBBBBIAAAAAAAAADDDDFIAAAAA",
"AAAAAUBBBBBVAAAAAAAANFDDDDNAAAAA",
"AAAAHBBBBBBBWAAAAAAJFDDDDDFIAAAA",
"AAAALBSBBBBBBHAAAAQDDDDDDDFJAAAA",
"AAAAOBBBBBBBBBRAAQDDDDDDDDDAAAAA",
"AAAAALBBBBBBBBBOADFFFFFFFDJAAAAA",
"AAAAAAOHHHHHHHHAAIJJJJIJIAAAAAAA",
"AAAAAAAAAAAAAAAAAAAAAAAAAAAAAAAA",
"AAAAAAAAAAAAAAAAAAAAAAAAAAAAAAAA",
"AAAAAAAAAAAAAAAAAAAAAAAAAAAAAAAA",
"AAAAAAAAAAAAAAAAAAAAAAAAAAAAAAAA",
"AAAAAAAAAAAAAAAAAAAAAAAAAAAAAAAA"
};
